book-minus-multiple.svg

<svg fill="currentColor" viewBox="0 0 24 24"><path d="M13.09 20H5V6H3v14a2 2 0 0 0 2 2h8.81a5.5 5.5 0 0 1-.72-2M19 2h-5v5l-2-1.5L10 7V2H9c-1.1 0-2 .9-2 2v12a2 2 0 0 0 2 2h4.09A6 6 0 0 1 20 13.08c.34.06.68.15 1 .26V4a2 2 0 0 0-2-2m4 16v2h-8v-2z"/></svg>

<svg  viewBox="0 0 24 24" fill="currentColor"><path  d="M13.09 20H5V6H3V20C3 21.11 3.9 22 5 22H13.81C13.44 21.39 13.2 20.71 13.09 20M19 2H14V7L12 5.5L10 7V2H9C7.9 2 7 2.9 7 4V16C7 17.11 7.9 18 9 18H13.09C13.64 14.73 16.74 12.53 20 13.08C20.34 13.14 20.68 13.23 21 13.34V4C21 2.9 20.11 2 19 2M23 18V20H15V18H23Z"/></svg>
